src/Icon/svgs/FullScreen.svg

<svg xmlns="http://www.w3.org/2000/svg" width="24" height="24" fill="none"  xmlns:v="https://vecta.io/nano"><path fill-rule="evenodd" d="M1 11V4a1 1 0 0 1 1-1h11v2H3v6H1zm0 3h2v3.5L6.5 14 8 15.5 4.5 19H8v2H1v-7zm22-4h-2V6.5L17.5 10 16 8.5 19.5 5H16V3h7v7zm0 3v7a1 1 0 0 1-1 1H11v-2h10v-6h2z" fill="#1b1c1d"/></svg>

<svg width="24" height="24" viewBox="0 0 24 24" fill="none" xmlns="http://www.w3.org/2000/svg">
<path fill-rule="evenodd" clip-rule="evenodd" d="M1 11V4C1 3.44772 1.44772 3 2 3H13V5H3V11H1ZM1 14H3V17.5L6.5 14L8 15.5L4.5 19H8V21H1V14ZM23 10H21V6.5L17.5 10L16 8.5L19.5 5H16V3H23V10ZM23 13V20C23 20.5523 22.5523 21 22 21H11V19H21V13H23Z" fill="#1B1C1D"/>
</svg>
